X: 2025
T: Yürü Dilber Yürü
C: (Anonim)
O: Turkey
F: http://compmusic.upf.edu/node/140
N: hicaz--kosma--nimsofyan--yuru_dilber--ankara
N: makam= hicaz
N: form= kosma
N: usul= nimsofyan = 2/4
M: 2/4
L: 1/16
K: C _7/8B ^f ^c 
Q: 1/4=96
%%MIDI tuningsystem comma53
=fede d2c2  | d2dc d2e2  | =fede d2c2  | \
w:  ARANAĞME  |   |   | 
d3d d2d2  | 
w:   | 
=fede d2c2  | d2dc d2e2  | =fede d2c2  | \
w:  ARANAĞME  |   |   | 
d3d d2d2  | 
w:   | 
efga g=fed  | e3e e2e2  | efga g=fed  | \
w:   |   |   | 
e3e e2e2  | 
w:   | 
efga g=fed  | e=fed cBA2  | eddc cBBA  | 
w:   |   |   | 
ABcd e4  | efga g=fed  | e=fed cBA2  | eddc cBBA  | 
w:   |   |   |   | 
A2zd ced2  | d2d6  | d8  | (3d2d2d2 (3d2d2d2  | \
w:   |  Hey  hey   |   |  SAZ  | 
z2dd d2d2  | dd3 d2e2  | 
w:  Yü rü  dil ber   |  yü rü  öm rü  | 
=fedc d4  | z2cd d2d2  | d2d2 d2d2  | c2{e}dc c2B2  | \
w:  mün  *  va *  rı    |  E ri di  kal  |  ma dı  dağ la  |  rın  *  ka *  *  rı   | 
c2dc B2A2  | 
w:  vay  vay    | 
.A2.A2 .A2.A2  | dcde c2B2  | A2AG A2B2  | \
w:  SAZ  |  SAZ  |   | 
dcde c2B2  | 
w:   | 
A3A A2A2  | dcde c2B2  | A2AG A2B2  | dcde c2B2  | 
w:   |  SAZ  |   |   | 
A2zd cde2  | z2cd e2e2  | ee3 e2e2  | e2{g}=fe d2{f}fe  | 
w:   |  Gün de  on  beş   |  ker re  gör dü  |  ğüm  *  yâ  | 
e3g fag2  | g2g2 g2g=f  | =f2e2 e2d2  | \
w:  ri   SAZ  |  Ay lar  yıl lar   |  geç ti  gö re  | 
d2{e}dc c2B2  | c2dc B2A2  | 
w:  mez  *  ol *  *  dum   |  vay  vay    | 
d3d d2dc  | B2{c}BA A4  | d3d d2dc  | B2{c}BA A4  | \
w:  As ma lar da   |  ü *  *  *  züm   |  yos ma lar da   |  gö *  *  *  züm    | 
dd3 d2dc  | 
w:  Bi raz  da ha   | 
B2{c}BA A4  | d2d2 d2dc  | B2{c}BA A4  | \
w:  bü *  yü *  sem   |  çap kın lık ta   |  gö *  *  *  züm    | 
d3d d2dc  | B2{c}BA A4  | 
w:  As ma lar da   |  ü *  *  *  züm   | 
d3d d2dc  | B2{c}BA A4  | dd3 d2dc  | B2{c}BA A4  | \
w:  yos ma lar da   |  gö *  *  *  züm    |  Bi raz  da ha   |  bü *  yü *  sem   | 
d2d2 d2dc  | 
w:  çap kın lık ta   | 
B2{c}BA A4  | =fede d2c2  | d2dc d2e2  | \
w:  gö *  *  *  züm    |  ARANAĞME  |   | 
=fede d2c2  | 
w:   | 
d3d d2d2  | =fede d2c2  | d2dc d2e2  | =fede d2c2  | 
w:   |  ARANAĞME  |   |   | 
d3d d2d2  | efga g=fed  | e3e e2e2  | efga g=fed  | 
w:   |   |   |   | 
e3e e2e2  | efga g=fed  | e=fed cBA2  | \
w:   |   |   | 
eddc cBBA  | 
w:   | 
ABcd e4  | efga g=fed  | e=fed cBA2  | eddc cBBA  | 
w:   |   |   |   | 
A2zd ced2  | d2d6  | d8  | (3d2d2d2 (3d2d2d2  | \
w:   |  Hey  hey   |   |  SAZ  | 
z2dd d2d2  | dd3 d2e2  | 
w:  Yü rü  dil ber   |  yü rü  öm rü  | 
=fedc d4  | z2cd d2d2  | d2d2 d2d2  | c2{e}dc c2B2  | \
w:  mün  *  va *  rı    |  E ri di  kal  |  ma dı  dağ la  |  rın  *  ka *  *  rı   | 
c2dc B2A2  | 
w:  vay  vay    | 
.A2.A2 .A2.A2  | dcde c2B2  | A2AG A2B2  | \
w:  SAZ  |  SAZ  |   | 
dcde c2B2  | 
w:   | 
A3A A2A2  | dcde c2B2  | A2AG A2B2  | dcde c2B2  | 
w:   |  SAZ  |   |   | 
A2zd cde2  | z2cd e2e2  | ee3 e2e2  | e2{g}=fe d2{f}fe  | 
w:   |  Gün de  on  beş   |  ker re  gör dü  |  ğüm  *  yâ  | 
e3g fag2  | g2g2 g2g=f  | =f2e2 e2d2  | \
w:  ri   SAZ  |  Ay lar  yıl lar   |  geç ti  gö re  | 
d2{e}dc c2B2  | c2dc B2A2  | 
w:  mez  *  ol *  *  dum   |  vay  vay    | 
d3d d2dc  | B2{c}BA A4  | d3d d2dc  | B2{c}BA A4  | \
w:  As ma lar da   |  ü *  *  *  züm   |  yos ma lar da   |  gö *  *  *  züm    | 
dd3 d2dc  | 
w:  Bi raz  da ha   | 
B2{c}BA A4  | d2d2 d2dc  | B2{c}BA A4  | \
w:  bü *  yü *  sem   |  çap kın lık ta   |  gö *  *  *  züm    | 
d3d d2dc  | B2{c}BA A4  | 
w:  As ma lar da   |  ü *  *  *  züm   | 
d3d d2dc  | B2{c}BA A4  | dd3 d2dc  | B2{c}BA A4  | \
w:  yos ma lar da   |  gö *  *  *  züm    |  Bi raz  da ha   |  bü *  yü *  sem   | 
d2d2 d2dc  | 
w:  çap kın lık ta   | 
B2{c}BA A4  | |


